archdroid-icon-theme/Archdroid-LightGreen/places/scalable/mail-move.svg

<svg xmlns="http://www.w3.org/2000/svg" fill="#8BC34A" viewBox="0 0 48 48"><path d="m44 12h-32c-2.21 0-3.98 1.79-3.98 4l-.02 24c0 2.21 1.79 4 4 4h32c2.21 0 4-1.79 4-4v-24c0-2.21-1.79-4-4-4m0 8l-16 10-16-10v-4l16 10 16-10v4m-40-16c-2.21 0-3.98 1.79-3.98 4l-.02 24h4v-24h32v-4h-32"/></svg>

<?xml version="1.0" encoding="UTF-8" standalone="no"?>
<svg
   xmlns:dc="http://purl.org/dc/elements/1.1/"
   xmlns:cc="http://creativecommons.org/ns#"
   xmlns:rdf="http://www.w3.org/1999/02/22-rdf-syntax-ns#"
   xmlns:svg="http://www.w3.org/2000/svg"
   xmlns="http://www.w3.org/2000/svg"
   xmlns:sodipodi="http://sodipodi.sourceforge.net/DTD/sodipodi-0.dtd"
   xmlns:inkscape="http://www.inkscape.org/namespaces/inkscape"
   fill="#8BC34A"
   width="48"
   height="48"
   viewBox="0 0 48 48"
   id="svg2"
   version="1.1"
   inkscape:version="0.91 r13725"
   sodipodi:docname="mail-move.svg">
  <metadata
     id="metadata10">
    <rdf:RDF>
      <cc:Work
         rdf:about="">
        <dc:format>image/svg+xml</dc:format>
        <dc:type
           rdf:resource="http://purl.org/dc/dcmitype/StillImage" />
      </cc:Work>
    </rdf:RDF>
  </metadata>
  <defs
     id="defs8" />
  <sodipodi:namedview
     pagecolor="#ffffff"
     bordercolor="#666666"
     borderopacity="1"
     objecttolerance="10"
     gridtolerance="10"
     guidetolerance="10"
     inkscape:pageopacity="0"
     inkscape:pageshadow="2"
     inkscape:window-width="1366"
     inkscape:window-height="713"
     id="namedview6"
     showgrid="false"
     inkscape:snap-bbox="true"
     inkscape:bbox-nodes="true"
     inkscape:zoom="7.795207766269937"
     inkscape:cx="-7.166761135678136"
     inkscape:cy="11.50151441415866"
     inkscape:window-x="0"
     inkscape:window-y="30"
     inkscape:window-maximized="1"
     inkscape:current-layer="svg2"
     inkscape:object-paths="true"
     inkscape:snap-intersection-paths="true"
     inkscape:object-nodes="true"
     inkscape:snap-smooth-nodes="true"
     inkscape:snap-midpoints="true" />
  <path
     id="path4"
     d="m 44,12 -32,0 c -2.210000000000001,0 -3.98,1.79 -3.98,4 L 8,40 c 0,2.21 1.789999999999999,4 4,4 l 32,0 c 2.21,0 4,-1.79 4,-4 l 0,-24 c 0,-2.21 -1.79,-4 -4,-4 z m 0,8 -16,10 -16,-10 0,-4 16,10 16,-10 0,4 z M 4,4 C 1.79,4 0.0195312499999997,5.79 0.01953125,8 L 0,32 4,32 4,8 36,8 36,4 4,4 Z" />
</svg>
